X:1
T:Twin Sisters
M:4/4
R:Jig
K:G
L:1/8
d|dBB BAG | AGA BGE | DGG GBd |edB A2 d |
dBB BAG | AGA BGE | DGG GAB| AGF G2:|
GBd g2 d | edc BAG | GBd g2d |edc A2 d|
GBd g2d |edc Bcd | egG c2 B| A2 F G3 :|
